X:33
T:Congress
M:C
L:1/8
K:A Dorian
fg|eAAG ABcd|eaaf gedB|eAAG ABcA|BAGF GABd|!
eAAG ABcd|eaaf gedB|cBcd eged|cABG A2:|!
Bd|eaab a3g|eaag e2dg|egdg egdg|egga ged2|!
eaab a3g|eaag e2dB|cBcd eged|cABG A2:|!
